epam-assets/icon-sources/18/internal-logo/support.svg

<svg width="18" height="18" viewBox="0 0 18 18" fill="none" xmlns="http://www.w3.org/2000/svg">
<g id="18/internal-logo/support">
<path id="icon" fill-rule="evenodd" clip-rule="evenodd" d="M11.4136 9.30436C11.8452 8.88416 12.5461 8.39189 13.4601 8.39189C14.0177 8.39189 14.5238 8.57838 14.9434 8.81726C14.7598 7.84135 14.3352 6.53351 13.3543 5.5272C12.3228 4.46899 10.8581 3.93243 9.00065 3.93243C7.13933 3.93243 5.67227 4.47122 4.64041 5.53389C3.65315 6.55064 3.23122 7.86304 3.05143 8.83662C3.47893 8.58862 3.99146 8.39189 4.54119 8.39189C5.41616 8.39189 6.13159 8.89682 6.5746 9.31591C7.05055 8.8947 7.85791 8.39189 9.00065 8.39189C10.1331 8.39189 10.9362 8.88547 11.4136 9.30436ZM9.60888 2.73568C11.5287 2.84848 13.0833 3.50209 14.2335 4.68659C16.3709 6.88784 16.3018 10.0985 16.2978 10.2342C16.2904 10.4884 16.1254 10.7111 15.8843 10.7925C15.8205 10.8139 15.755 10.8243 15.6901 10.8243C15.5099 10.8243 15.3348 10.7441 15.2172 10.5986C15.2104 10.5902 14.3942 9.60811 13.4602 9.60811C12.5713 9.60811 11.9508 10.5355 11.9449 10.5448C11.8339 10.7174 11.6435 10.8225 11.4385 10.8243H11.4332C11.23 10.8243 11.0401 10.7228 10.9273 10.5535C10.9031 10.5186 10.26 9.60811 9.00077 9.60811C7.74158 9.60811 7.0984 10.5186 7.07165 10.5575C6.95884 10.7208 6.77195 10.8211 6.5734 10.8222H6.56975C6.37242 10.8222 6.18614 10.7287 6.07212 10.5677C5.88097 10.3021 5.2308 9.60811 4.54131 9.60811C3.81492 9.60811 2.99813 10.355 2.76928 10.6166C2.60459 10.8049 2.34148 10.8729 2.10614 10.7885C1.8707 10.704 1.71107 10.4841 1.70367 10.2342C1.69972 10.0985 1.6306 6.88784 3.7681 4.68659C4.91823 3.50209 6.47286 2.84848 8.39266 2.73568V2.10811C8.39266 1.77233 8.66499 1.5 9.00077 1.5C9.33654 1.5 9.60888 1.77233 9.60888 2.10811V2.73568ZM6.16289 14.777C6.16289 15.7271 6.93579 16.5 7.88586 16.5C8.83593 16.5 9.60883 15.7271 9.60883 14.777V11.027C9.60883 10.6912 9.3365 10.4189 9.00073 10.4189C8.66495 10.4189 8.39262 10.6912 8.39262 11.027V14.777C8.39262 15.0565 8.16529 15.2838 7.88586 15.2838C7.60644 15.2838 7.3791 15.0565 7.3791 14.777V14.5743C7.3791 14.2385 7.10677 13.9662 6.771 13.9662C6.43522 13.9662 6.16289 14.2385 6.16289 14.5743V14.777Z" fill="#6C6F80"/>
</g>
</svg>

<svg xmlns="http://www.w3.org/2000/svg" width="18" height="18" fill="none" viewBox="0 0 18 18">
  <path fill="#6C6F80" fill-rule="evenodd" d="M11.414 9.304c.431-.42 1.132-.912 2.046-.912.558 0 1.064.186 1.483.425-.183-.976-.608-2.283-1.589-3.29-1.031-1.058-2.496-1.595-4.353-1.595-1.862 0-3.329.54-4.36 1.602-.988 1.017-1.41 2.329-1.59 3.303.428-.248.94-.445 1.49-.445.875 0 1.59.505 2.034.924A3.617 3.617 0 0 1 9 8.392c1.132 0 1.935.493 2.413.912ZM9.609 2.736c1.92.112 3.474.766 4.624 1.95 2.138 2.202 2.069 5.412 2.065 5.548a.608.608 0 0 1-1.08.365c-.008-.009-.824-.99-1.758-.99-.889 0-1.51.927-1.515.936a.609.609 0 0 1-.507.28h-.005a.608.608 0 0 1-.506-.271 2.421 2.421 0 0 0-1.926-.946 2.42 2.42 0 0 0-1.93.95.613.613 0 0 1-.498.264H6.57a.608.608 0 0 1-.498-.254c-.191-.266-.841-.96-1.53-.96-.727 0-1.544.747-1.773 1.009a.608.608 0 0 1-1.065-.383c-.004-.136-.073-3.346 2.064-5.547 1.15-1.185 2.705-1.839 4.625-1.951v-.628a.608.608 0 0 1 1.216 0v.628ZM6.163 14.777c0 .95.773 1.723 1.723 1.723.95 0 1.723-.773 1.723-1.723v-3.75a.608.608 0 0 0-1.216 0v3.75a.507.507 0 0 1-1.014 0v-.203a.608.608 0 0 0-1.216 0v.203Z" clip-rule="evenodd"/>
</svg>
